X: 110
T: Li hun
L: 1/16
M: 2/4
K: G
e2> B2 B F A B [I:setbarnb 1]| 
e2> B2 B F A B | 
d e B A B A E G | 
A8 | 
d e B A B A E G | 
A8 | 
e2 B d e2 g B | 
A A B AG4 | 
E2 E GA4 | 
B d B A A E G A | 
D8 |]

@@@ Tune index: 8984
